X:104
T:Dance, A
O:No 104 Wm Clarke MS  Feltwell, Norfolk
I:abc2nwc
M:6/8
L:1/8
K:G
(G/2A/2)|B2B BAB|d2c c2A|B2B Bcd|A2A A2z|f3f3|
g3gfe|ded cBA|Bcd efg|ded cBA|G3G2:|
|:(F/2G/2)|A2A Adc|B2e d2B|A2A edc|B2c def|
{a}g2g gfg|b2a a2g|fga gec|ded cBA|G3:|

